svg/logo/snapchat_line.svg

<?xml version="1.0" encoding="UTF-8"?>
<svg width="24px" height="24px" viewBox="0 0 24 24" version="1.1" xmlns="http://www.w3.org/2000/svg" xmlns:xlink="http://www.w3.org/1999/xlink">
    <title>snapchat_line</title>
    <g id="页面-1" stroke="none" stroke-width="1" fill="none" fill-rule="evenodd">
        <g id="Brand" transform="translate(-624.000000, -0.000000)">
            <g id="snapchat_line" transform="translate(624.000000, 0.000000)">
                 <path d="M24,0 L24,24 L0,24 L0,0 L24,0 Z M12.5934901,23.257841 L12.5819402,23.2595131 L12.5108777,23.2950439 L12.4918791,23.2987469 L12.4918791,23.2987469 L12.4767152,23.2950439 L12.4056548,23.2595131 C12.3958229,23.2563662 12.3870493,23.2590235 12.3821421,23.2649074 L12.3780323,23.275831 L12.360941,23.7031097 L12.3658947,23.7234994 L12.3769048,23.7357139 L12.4804777,23.8096931 L12.4953491,23.8136134 L12.4953491,23.8136134 L12.5071152,23.8096931 L12.6106902,23.7357139 L12.6232938,23.7196733 L12.6232938,23.7196733 L12.6266527,23.7031097 L12.609561,23.275831 C12.6075724,23.2657013 12.6010112,23.2592993 12.5934901,23.257841 L12.5934901,23.257841 Z M12.8583906,23.1452862 L12.8445485,23.1473072 L12.6598443,23.2396597 L12.6498822,23.2499052 L12.6498822,23.2499052 L12.6471943,23.2611114 L12.6650943,23.6906389 L12.6699349,23.7034178 L12.6699349,23.7034178 L12.678386,23.7104931 L12.8793402,23.8032389 C12.8914285,23.8068999 12.9022333,23.8029875 12.9078286,23.7952264 L12.9118235,23.7811639 L12.8776777,23.1665331 C12.8752882,23.1545897 12.8674102,23.1470016 12.8583906,23.1452862 L12.8583906,23.1452862 Z M12.1430473,23.1473072 C12.1332178,23.1423925 12.1221763,23.1452606 12.1156365,23.1525954 L12.1099173,23.1665331 L12.0757714,23.7811639 C12.0751323,23.7926639 12.0828099,23.8018602 12.0926481,23.8045676 L12.108256,23.8032389 L12.3092106,23.7104931 L12.3186497,23.7024347 L12.3186497,23.7024347 L12.3225043,23.6906389 L12.340401,23.2611114 L12.337245,23.2485176 L12.337245,23.2485176 L12.3277531,23.2396597 L12.1430473,23.1473072 Z" id="MingCute" fill-rule="nonzero"></path>
                <path d="M11.9999,2 C8.68615,2 5.99986,4.68629 5.99986,8 L5.99986,9.875 L5.09986,9.2 C4.65803,8.86863 4.03123,8.95817 3.69986,9.4 C3.36849,9.84183 3.45803,10.4686 3.89986,10.8 L5.76638,12.1999 C5.3218,13.3676 4.23864,14.5905 2.48537,15.6425 C2.00271,15.9321 1.85559,16.5864 2.16781,17.0547 C3.2857,18.7315 5.05971,20 6.99986,20 C7.67652,20 8.20295,20.4296 8.72419,20.8087 C9.45632,21.3412 10.4229,22 11.9999,22 C13.5768,22 14.5434,21.3412 15.2755,20.8087 C15.7967,20.4296 16.3231,20 16.9998,20 C18.9399,20 20.7141,18.7316 21.8319,17.0547 C22.1441,16.5863 21.997,15.9321 21.5144,15.6425 C19.7611,14.5905 18.6779,13.3676 18.2333,12.1999 L20.0999,10.8 C20.5417,10.4686 20.6312,9.84183 20.2999,9.4 C19.9685,8.95817 19.3417,8.86863 18.8999,9.2 L17.9998,9.87504 L17.9999,8.00003 C17.9999,4.68632 15.3136,2 11.9999,2 Z M7.99986,8 C7.99986,5.79086 9.79072,4 11.9999,4 C14.209,4 15.9998,5.79084 15.9999,7.99997 L15.9998,11 C15.9998,13.1985 17.42,15.2088 19.5379,16.7346 C18.7518,17.5561 17.8253,18 16.9998,18 C15.6217,18 14.7362,18.728 14.0991,19.1913 C13.4563,19.6588 12.9229,20 11.9999,20 C11.0768,20 10.5434,19.6588 9.90053,19.1913 C9.2635,18.728 8.37791,18 6.99986,18 C6.17432,18 5.24797,17.5562 4.46185,16.7346 C6.57978,15.2088 7.99986,13.1985 7.99986,11 L7.99986,8 Z" id="形状" fill="#09244B"></path>
            </g>
        </g>
    </g>
</svg>

<svg xmlns="http://www.w3.org/2000/svg" width="24" height="24"><g fill="none" fill-rule="evenodd"><path d="M24 0v24H0V0h24ZM12.593 23.258l-.011.002-.071.035-.02.004-.014-.004-.071-.035c-.01-.004-.019-.001-.024.005l-.004.01-.017.428.005.02.01.013.104.074.015.004.012-.004.104-.074.012-.016.004-.017-.017-.427c-.002-.01-.009-.017-.017-.018Zm.265-.113-.013.002-.185.093-.01.01-.003.011.018.43.005.012.008.007.201.093c.012.004.023 0 .029-.008l.004-.014-.034-.614c-.003-.012-.01-.02-.02-.022Zm-.715.002a.023.023 0 0 0-.027.006l-.006.014-.034.614c0 .012.007.02.017.024l.015-.002.201-.093.01-.008.004-.011.017-.43-.003-.012-.01-.01-.184-.092Z"/><path fill="#09244B" d="M12 2a6 6 0 0 0-6 6v1.875L5.1 9.2a1 1 0 1 0-1.2 1.6l1.866 1.4c-.444 1.168-1.527 2.39-3.28 3.443a1.01 1.01 0 0 0-.318 1.412C3.286 18.732 5.06 20 7 20c.677 0 1.203.43 1.724.809C9.456 21.34 10.423 22 12 22c1.577 0 2.543-.659 3.275-1.191.522-.38 1.048-.809 1.725-.809 1.94 0 3.714-1.268 4.832-2.945a1.01 1.01 0 0 0-.318-1.412c-1.753-1.053-2.836-2.275-3.28-3.443l1.866-1.4a1 1 0 0 0-1.2-1.6l-.9.675V8a6 6 0 0 0-6-6ZM8 8a4 4 0 0 1 8 0v3c0 2.198 1.42 4.209 3.538 5.735C18.752 17.556 17.825 18 17 18c-1.378 0-2.264.728-2.9 1.191-.644.468-1.177.809-2.1.809s-1.457-.341-2.1-.809C9.265 18.728 8.379 18 7 18c-.826 0-1.752-.444-2.538-1.265C6.58 15.209 8 13.199 8 11V8Z"/></g></svg>
